lib/assets/NothingToShow_Icon.svg

<svg xmlns="http://www.w3.org/2000/svg" width="45.998" height="60.178" viewBox="0 0 45.998 60.178"><defs><style>.a{opacity:0.4;}.b{fill:none;stroke-linejoin:round;}.c,.d{stroke:none;}</style></defs><g transform="translate(-32.271 -722.822)"><g class="a" transform="translate(34.298 725.822)"><g class="b" transform="translate(-177.501 -403.029)"><path class="c" d="M198.474,432.893h-19l9.5,23.314h19l9.5-23.314Z"/><path class="d" d="M 179.4757690429688 432.8925170898438 L 188.9749450683594 456.2069702148438 L 207.9735107421875 456.2069702148438 L 217.47265625 432.8925170898438 L 198.4742126464844 432.8925170898438 L 179.4757690429688 432.8925170898438 M 179.4757690429688 428.8925170898438 L 198.4742126464844 428.8925170898438 L 217.47265625 428.8925170898438 C 218.8044738769531 428.8925170898438 220.0489501953125 429.5553588867188 220.7920684814453 430.6605834960938 C 221.5352020263672 431.7658081054688 221.6795196533203 433.1684265136719 221.1769866943359 434.4017944335938 L 211.6778411865234 457.7162475585938 C 211.064208984375 459.2223205566406 209.5998077392578 460.2069702148438 207.9735107421875 460.2069702148438 L 188.9749450683594 460.2069702148438 C 187.3486480712891 460.2069702148438 185.8842468261719 459.2223205566406 185.2706146240234 457.7162475585938 L 175.7714385986328 434.4017944335938 C 175.2689056396484 433.1684265136719 175.4132232666016 431.7658386230469 176.1563568115234 430.6606140136719 C 176.8994750976563 429.5553894042969 178.1439514160156 428.8925170898438 179.4757690429688 428.8925170898438 Z"/></g><g class="b" transform="translate(-178.095 -420.476)"><path class="c" d="M180.068,445.5s0-5.886,4.75-8.008c0,0,0-8,7.125-8,0,0,0-8.008,7.125-8.008s7.125,8.008,7.125,8.008,7.048-.251,7.048,8.339c0,0,4.824,2.335,4.824,7.674Z"/><path class="d" d="M 218.0659790039063 445.49658203125 C 218.0659790039063 440.157958984375 213.2415161132813 437.822998046875 213.2415161132813 437.822998046875 C 213.2415161132813 429.7068786621094 206.9496917724609 429.4830017089844 206.25537109375 429.4830017089844 C 206.2148284912109 429.4830017089844 206.193359375 429.4837646484375 206.193359375 429.4837646484375 C 206.193359375 429.4837646484375 206.193359375 421.47607421875 199.0682678222656 421.47607421875 C 191.943115234375 421.47607421875 191.943115234375 429.4837646484375 191.943115234375 429.4837646484375 C 184.8180541992188 429.4837646484375 184.8180541992188 437.4886474609375 184.8180541992188 437.4886474609375 C 180.0679931640625 439.6102294921875 180.0679931640625 445.49658203125 180.0679931640625 445.49658203125 L 218.0659790039063 445.49658203125 M 218.0659790039063 449.49658203125 L 180.0679931640625 449.49658203125 C 177.8588562011719 449.49658203125 176.0679931640625 447.7057189941406 176.0679931640625 445.49658203125 C 176.0679931640625 445.1398315429688 176.1069946289063 443.2460632324219 176.8768310546875 440.9942626953125 C 177.7312469482422 438.4950256347656 179.1622772216797 436.48291015625 181.0721588134766 435.0688781738281 C 181.2487945556641 434.1241760253906 181.5478820800781 432.9976196289063 182.0542602539063 431.8598327636719 C 182.8522338867188 430.0668029785156 183.9866485595703 428.6110229492188 185.4260101318359 427.5329895019531 C 186.3368377685547 426.8507690429688 187.3426513671875 426.3372802734375 188.4356842041016 425.9949645996094 C 188.6125335693359 425.31640625 188.8527679443359 424.5875549316406 189.1791229248047 423.85400390625 C 189.9770050048828 422.0605773925781 191.111328125 420.6044616699219 192.5505981445313 419.526123046875 C 194.3661651611328 418.1658020019531 196.5590209960938 417.47607421875 199.0682678222656 417.47607421875 C 201.5774993896484 417.47607421875 203.7703399658203 418.1658325195313 205.5859222412109 419.526123046875 C 207.0251617431641 420.6044921875 208.1594848632813 422.0605773925781 208.9573516845703 423.85400390625 C 209.2968444824219 424.6170654296875 209.5431518554688 425.3751220703125 209.7218475341797 426.07666015625 C 210.5041046142578 426.3375854492188 211.3455505371094 426.7117919921875 212.1768646240234 427.2479553222656 C 213.7206420898438 428.24365234375 214.9399871826172 429.5932922363281 215.8010559082031 431.2593688964844 C 216.4617462158203 432.5377502441406 216.8973083496094 433.9876098632813 217.1033020019531 435.5886840820313 C 217.5561065673828 435.9454040527344 218.0449371337891 436.3748779296875 218.5334320068359 436.881591796875 C 220.8444519042969 439.2787170410156 222.0659790039063 442.2577514648438 222.0659790039063 445.49658203125 C 222.0659790039063 447.7057189941406 220.2751159667969 449.49658203125 218.0659790039063 449.49658203125 Z"/></g></g></g></svg>

<svg height="60.178" viewBox="0 0 45.998 60.178" width="45.998" xmlns="http://www.w3.org/2000/svg"><g fill="none" opacity=".4" stroke-linejoin="round"><g transform="translate(-175.474 -400.029)"><path d="m198.474 432.893h-19l9.5 23.314h19l9.5-23.314z"/><path d="m179.47576904 432.89251709 9.49917603 23.31445312h18.99856567l9.49914551-23.31445312h-18.9984436zm0-4h18.99844361 18.9984436c1.33181763 0 2.57629395.6628418 3.31941223 1.76806641.74313355 1.10522461.88745117 2.50784301.38491821 3.74121093l-9.4991455 23.31445313c-.61363221 1.506073-2.07803345 2.49072265-3.70433045 2.49072265h-18.99856567c-1.626297 0-3.09069824-.98464965-3.70433045-2.49072265l-9.49917602-23.31445313c-.50253296-1.23336792-.35821533-2.63595581.38491821-3.74118042.74311829-1.10522461 1.98759461-1.76809692 3.31941223-1.76809692z"/></g><g transform="translate(-176.068 -417.476)"><path d="m180.068 445.5s0-5.886 4.75-8.008c0 0 0-8 7.125-8 0 0 0-8.008 7.125-8.008s7.125 8.008 7.125 8.008 7.048-.251 7.048 8.339c0 0 4.824 2.335 4.824 7.674z"/><path d="m218.065979 445.49658203c0-5.33862305-4.82446289-7.67358398-4.82446289-7.67358398 0-8.11611939-6.29182434-8.33999634-6.98614502-8.33999634-.0405426 0-.06201171.00076294-.06201171.00076294s0-8.00769043-7.12509156-8.00769043c-7.12515259 0-7.12515259 8.00769043-7.12515259 8.00769043-7.12506103 0-7.12506103 8.00488281-7.12506103 8.00488281-4.75006104 2.12158203-4.75006104 8.00793457-4.75006104 8.00793457zm0 4h-37.99798584c-2.20913696 0-4-1.79086304-4-4 0-.35675049.03900147-2.2505188.80883789-4.50231933.8544159-2.49923707 2.28544617-4.51135254 4.19532776-5.92538453.17663575-.94470214.47572327-2.07125854.98210144-3.20904541.79797364-1.79302978 1.93238831-3.24880981 3.37174988-4.32684326.91082764-.68222046 1.91664124-1.19570923 3.00967407-1.5380249.17684937-.67855835.41708374-1.40740967.74343872-2.14096069.79788208-1.79342652 1.93220521-3.24954224 3.37147522-4.32788086 1.81556702-1.36032105 4.00842286-2.05004883 6.51766968-2.05004883 2.50923157 0 4.70207215.6897583 6.51765442 2.05004883 1.4392395 1.07836914 2.57356262 2.53445434 3.37142944 4.32788086.3394928.76306152.58580018 1.52111816.76449585 2.22265625.78225708.26092529 1.62370301.63513183 2.45501709 1.17129516 1.54377747.99569702 2.76312256 2.34533692 3.62419129 4.01141358.66069031 1.27838134 1.09625244 2.72824096 1.30224609 4.32931518.45280457.35671997.94163513.78619385 1.43013001 1.29290772 2.31101989 2.39712524 3.53254699 5.37615966 3.53254699 8.61499023 0 2.20913696-1.79086303 4-4 4z"/></g></g></svg>
